media/icons/block1/Эко.svg

<svg width="77" height="77" viewBox="0 0 77 77" fill="none" xmlns="http://www.w3.org/2000/svg">
<path d="M36.0937 70.5834C34.3292 70.5834 32.5517 70.3834 30.7615 69.9834C28.9712 69.5834 27.1393 69.0081 25.2656 68.2573C25.9073 61.7872 27.7788 55.7448 30.8802 50.1302C33.9816 44.5156 37.9653 39.5695 42.8312 35.2917C36.9493 38.2861 31.8566 42.2431 27.5532 47.1625C23.2497 52.082 20.2414 57.6965 18.5281 64.0063C18.3142 63.8459 18.1142 63.6726 17.9282 63.4865L17.325 62.8834C14.8118 60.3702 12.9007 57.5629 11.5917 54.4615C10.2827 51.3601 9.62714 48.125 9.625 44.7563C9.625 41.1202 10.3469 37.6445 11.7906 34.3292C13.2344 31.0139 15.2396 28.0729 17.8062 25.5063C22.1375 21.175 27.7521 18.3549 34.65 17.0459C41.5479 15.7369 51.2264 15.6161 63.6854 16.6834C64.6479 29.4632 64.4875 39.2091 63.2042 45.9209C61.9208 52.6327 59.1403 58.1265 54.8625 62.4021C52.2424 65.0222 49.3142 67.0414 46.0781 68.4594C42.8419 69.8775 39.5138 70.5855 36.0937 70.5834Z" fill="#378BC5"/>
</svg>

<svg xmlns="http://www.w3.org/2000/svg" width="77" height="77" fill="none" viewBox="0 0 77 77"><path fill="#378bc5" d="M36.094 70.583q-2.647 0-5.332-.6t-5.496-1.726q.962-9.705 5.614-18.127t11.951-14.838q-8.822 4.491-15.278 11.87-6.455 7.38-9.025 16.844a6 6 0 0 1-.6-.52l-.603-.603q-3.77-3.77-5.733-8.422a24.8 24.8 0 0 1-1.967-9.705q0-5.453 2.166-10.427a28.4 28.4 0 0 1 6.015-8.823q6.497-6.497 16.844-8.46t29.035-.363q1.444 19.17-.48 29.238-1.926 10.068-8.343 16.481-3.93 3.93-8.784 6.057t-9.984 2.124"/></svg>
